X: 5
T: Les Frères Pigeon
R: reel
M: 4/4
L: 1/8
K: Bmin
|:Bcdc B2F2|Bcdc B2F2|B3c d2B2|c2f2 c2f2|
Bcdc B2F2|Bcdc B2F2|f3g f2e2|d2c2 B2^A2:|
|:A2 a4 f2|d6 B2|A2fg f2d2|A4 ABAF|G2E2 e4|
e2A2 c2e2|1 a2f2 e2a2|f2d2 c2B2:|2 a2g2 e2c2|d4 d4||

